images/Traffic_Sign_GR_-_KOK_2009_-_P-47.svg

<svg width="460" height="655" fill="none" xmlns="http://www.w3.org/2000/svg"><path d="M460 0H0v655h460V0z" fill="#0C479D"/><path d="M53 505V150h355v355H53z" fill="#fff"/><path d="m121.586 381.759 28.99-127.655h16.695l6.598 15.832-30.89 130.06h-18.294l-3.099-18.237zm-11.297-127.655 24.292 128.257-4.198 17.635H109.59L78 254.104h32.289zm84.273 127.555 23.992-127.555h32.19l-31.59 145.892h-20.593l-3.999-18.337zm-16.395-127.555 29.391 128.357-3.399 17.535h-18.194l-31.39-130.16 6.898-15.732h16.694zm171.244 96.994h32.39c-.534 10.02-3.265 18.871-8.197 26.553-4.867 7.616-11.631 13.594-20.293 17.936-8.665 4.275-18.961 6.413-30.89 6.413-9.531 0-18.062-1.637-25.592-4.91-7.532-3.273-13.93-7.949-19.194-14.028-5.199-6.145-9.197-13.527-11.996-22.144-2.733-8.684-4.099-18.47-4.099-29.359v-8.918c0-10.888 1.433-20.674 4.299-29.359 2.865-8.683 6.964-16.098 12.296-22.244 5.331-6.146 11.729-10.855 19.194-14.128 7.464-3.273 15.795-4.91 24.991-4.91 12.397 0 22.859 2.238 31.39 6.713 8.531 4.476 15.128 10.622 19.794 18.437 4.731 7.816 7.564 16.734 8.496 26.754h-32.489c-.266-5.678-1.333-10.455-3.198-14.329-1.867-3.941-4.733-6.914-8.599-8.918-3.865-2.004-8.996-3.006-15.394-3.006-4.666 0-8.764.869-12.296 2.606-3.466 1.736-6.365 4.442-8.697 8.116-2.266 3.674-3.966 8.35-5.098 14.028-1.134 5.611-1.699 12.291-1.699 20.04v9.118c0 7.682.499 14.329 1.498 19.94 1 5.611 2.601 10.254 4.799 13.928 2.267 3.674 5.166 6.413 8.697 8.216 3.532 1.804 7.832 2.706 12.897 2.706 5.798 0 10.629-.902 14.495-2.706 3.865-1.87 6.83-4.676 8.897-8.417 2.066-3.74 3.266-8.45 3.598-14.128z" fill="#000"/></svg>

<svg width="460" height="655" viewBox="0 0 460 655" fill="none" xmlns="http://www.w3.org/2000/svg">
<path d="M460 0H0V655H460V0Z" fill="#0C479D"/>
<path d="M53 505V150H408V505H53Z" fill="white"/>
<path d="M121.586 381.759L150.576 254.104H167.271L173.869 269.936L142.979 399.996H124.685L121.586 381.759ZM110.289 254.104L134.581 382.361L130.383 399.996H109.59L78 254.104H110.289ZM194.562 381.659L218.554 254.104H250.744L219.154 399.996H198.561L194.562 381.659ZM178.167 254.104L207.558 382.461L204.159 399.996H185.965L154.575 269.836L161.473 254.104H178.167ZM349.411 351.098H381.801C381.267 361.118 378.536 369.969 373.604 377.651C368.737 385.267 361.973 391.245 353.311 395.587C344.646 399.862 334.35 402 322.421 402C312.89 402 304.359 400.363 296.829 397.09C289.297 393.817 282.899 389.141 277.635 383.062C272.436 376.917 268.438 369.535 265.639 360.918C262.906 352.234 261.54 342.448 261.54 331.559V322.641C261.54 311.753 262.973 301.967 265.839 293.282C268.704 284.599 272.803 277.184 278.135 271.038C283.466 264.892 289.864 260.183 297.329 256.91C304.793 253.637 313.124 252 322.32 252C334.717 252 345.179 254.238 353.71 258.713C362.241 263.189 368.838 269.335 373.504 277.15C378.235 284.966 381.068 293.884 382 303.904H349.511C349.245 298.226 348.178 293.449 346.313 289.575C344.446 285.634 341.58 282.661 337.714 280.657C333.849 278.653 328.718 277.651 322.32 277.651C317.654 277.651 313.556 278.52 310.024 280.257C306.558 281.993 303.659 284.699 301.327 288.373C299.061 292.047 297.361 296.723 296.229 302.401C295.095 308.012 294.53 314.692 294.53 322.441V331.559C294.53 339.241 295.029 345.888 296.028 351.499C297.028 357.11 298.629 361.753 300.827 365.427C303.094 369.101 305.993 371.84 309.524 373.643C313.056 375.447 317.356 376.349 322.421 376.349C328.219 376.349 333.05 375.447 336.916 373.643C340.781 371.773 343.746 368.967 345.813 365.226C347.879 361.486 349.079 356.776 349.411 351.098Z" fill="black"/>
</svg>
